X:1025
T:Gluss Ayre
C:Joe Buchanan's Scottish Tome - Page 615.2
I:615 2
Z:Carl Allison
C:Frank Ronald Jamieson
R:Waltz
L:1/4
M:3/4
K:A
E/D/ | "A"C2 E | "A"A2 c | "Bm7"d2 F | "D"F3 | "A"E2 A | "F#m"c2 A | "Bm7"G>B G | "E7"E2 D |
"A"C2 E | "A7"A2 c | "D"d2 F | "Dm"d3 | "A"E2 A | "E7"G2 B | "A"A3 | "A"A2 :|
"E7"((3e/f/g/) | "A"a2 e | "A7"c2 A | "D"f2 d | "D"A2 F | "A"E2 A | "F#m"c2 A | "Bm7"G B2 | "E7"B2 ((3d/e/f/) |
"A"a2 e | "A7"c2 A | "D"f2 d | "D"A2 F | "A"E2 A | "E7"G2 B | "A"A3 | "A"A2 ((3e/f/g/) |
"A"a2 e | "A7"c2 A | "D"f2 d | "D"A2 F | "A"E2 A | "F#m"c2 A | "Bm"G>B G | "E7"E2 D |
"A"C2 E | "A7"A2 c | "D"d2 F | "Bm"d3 | "A"E2 A | "E7"G2 B | "A"A3 | "A"A2 |] 

